!!!!SEGMENT: pl-kk--kk-i-2--035_anonim--alleluia-vox-exsultationis.krn
!!!cenid: 16xx:1655
!!!COM: Anonim
!!!COM-rismid: pe30004985
!!!CDT:
!!!CNT:
!!!OTL: Alleluia. Vox exsultationis
!!!PDT:
!!!AGN: Sacred
!!!SMS-siglum: PL-Kk
!!!SMS-shelfmark: Kk.I.2
!!!SMS-shelfwork: 035 W
!!!SMS-variant:
!!!SMS-altvar:
!!!NIFC-rismid: 300258053
!!!URL-scan: http://repozytorium.nifc.pl/skany/pl-kk-nut--i-2
!!!ONB-nifc: skany: C: 0058; A: 0161; T: 0263; B: 0361;
!!!OMD:
!!!key: g:hypomixolyd
**kern	**text	**kern	**text	**kern	**text	**kern	**text
*part4	*part4	*part3	*part3	*part2	*part2	*part1	*part1
*staff4	*staff4	*staff3	*staff3	*staff2	*staff2	*staff1	*staff1
*I"BASVS	*	*I"TENOR	*	*I"ALTVS	*	*I"DISCANTVS	*
*I'B	*	*I'T	*	*I'A	*	*I'S	*
*Ibass	*	*Itenor	*	*Ialto	*	*Isoprn	*
*ICvox	*	*ICvox	*	*ICvox	*	*ICvox	*
*clefF4	*	*clefC1	*	*clefC3	*	*clefC4	*
*k[]	*	*k[]	*	*k[]	*	*k[]	*
*C:	*	*C:	*	*C:	*	*C:	*
*M2/1	*	*M2/1	*	*M2/1	*	*M2/1	*
*met(C|)	*	*met(C|)	*	*met(C|)	*	*met(C|)	*
=1-	=1-	=1-	=1-	=1-	=1-	=1-	=1-
!!LO:TX:t=P:problem:4\right or left:global
1D	Al-	00r	.	00r	.	1D	A-
1GG	-le-	.	.	.	.	1G	.
=2-	=2-	=2-	=2-	=2-	=2-	=2-	=2-
*	*	*	*	*	*	*lig	*
1C	.	.	.	.	.	1G	-lle-
2.C/	.	.	.	.	.	1A	.
4D/	.	.	.	.	.	.	.
*	*	*	*	*	*	*Xlig	*
=3-	=3-	=3-	=3-	=3-	=3-	=3-	=3-
*	*	*	*	*	*	*lig	*
2E\	.	0r	.	00r	.	1c	.
1F	.	.	.	.	.	.	.
.	.	.	.	.	.	1A	.
4E/	.	.	.	.	.	.	.
4D/	.	.	.	.	.	.	.
*	*	*	*	*	*	*Xlig	*
=4-	=4-	=4-	=4-	=4-	=4-	=4-	=4-
2E\	.	1r	.	.	.	2.G/	.
2C/	.	.	.	.	.	.	.
.	.	.	.	.	.	4A/	.
1G	.	1d	Al-	.	.	1B	.
=5-	=5-	=5-	=5-	=5-	=5-	=5-	=5-
0C	.	1g	-le-	1G	Al-	2c/	.
*	*	*	*	*	*	*2\right	*
.	.	.	.	.	.	2.e\	.
*	*	*lig	*	*	*	*	*
.	.	1g	.	1c	-le-	.	.
.	.	.	.	.	.	4d/	.
.	.	.	.	.	.	4c/	.
.	.	.	.	.	.	4B/	.
=6-	=6-	=6-	=6-	=6-	=6-	=6-	=6-
1F	.	1a	.	2.c/	.	1A	.
.	.	.	.	4d/	.	.	.
*	*	*Xlig	*	*	*	*	*
*	*	*lig	*	*	*	*	*
2r	.	1cc	.	2e\	.	2r	.
1.F\	.	.	.	1f\	.	2A/	.
=7-	=7-	=7-	=7-	=7-	=7-	=7-	=7-
.	.	1a	.	.	.	0c	.
.	.	.	.	4e/	.	.	.
.	.	.	.	4d/	.	.	.
*	*	*Xlig	*	*	*	*	*
2.C/	.	0g	.	0e	.	.	.
4D/	.	.	.	.	.	.	.
=8-	=8-	=8-	=8-	=8-	=8-	=8-	=8-
2E\	.	.	.	.	.	2B/	.
*custos:F	*	*	*	*	*	*custos:A	*
2C/	.	.	.	.	.	1c	.
!LO:LB:g=original	!	!	!	!	!	!	!
1F	.	1a	.	2f\	.	.	.
!	!	!	!	!	!	!LO:LB:g=original	!
.	.	.	.	1a\	.	2.A/	.
=9-	=9-	=9-	=9-	=9-	=9-	=9-	=9-
1A	.	1cc	.	.	.	.	.
.	.	.	.	.	.	4B/	.
.	.	.	.	4g\	.	2c\	.
*	*	*	*	*	*ij	*	*
.	.	.	.	4f\	Al-	.	.
*	*	*lig	*	*	*	*	*
1G	.	1b	.	4g\	-le-	2d\	.
*	*	*	*	*	*Xij	*	*
.	.	.	.	4f\	.	.	.
.	.	.	.	4e\	.	2B/	.
.	.	.	.	4d/	.	.	.
=10-	=10-	=10-	=10-	=10-	=10-	=10-	=10-
1F	.	1a	.	2.c/	.	1c	.
.	.	.	.	4d/	.	.	.
*	*	*Xlig	*	*	*	*	*
2r	.	2cc\	.	4e/	.	2A/	.
.	.	.	.	4f/	.	.	.
1.G\	.	1b\	.	1g\	.	1d\	.
=11-	=11-	=11-	=11-	=11-	=11-	=11-	=11-
.	.	.	.	.	.	.	.
.	.	4a\	.	4f\	.	2B/	.
.	.	4g\	.	4e\	.	.	.
2F\	.	2a\	.	2f\	.	2c/	.
*	*	*	*	*custos:d	*	*	*
2G\	.	1g\	.	1d\	.	2B/	.
=12-	=12-	=12-	=12-	=12-	=12-	=12-	=12-
1D	-lu-	.	.	.	.	1A	-lu-
!	!	!	!	!LO:LB:g=original	!	!	!
.	.	2f\	-lu-	2d\	-lu-	.	.
*	*	*custos:d	*	*	*	*	*
1GGl/	-ia	1gl\	-ia	1dl\	-ia	1Gl	-ia
=13||-	=13||-	=13||-	=13||-	=13||-	=13||-	=13||-	=13||-
*lig	*	*	*	*	*	*lig	*
!	!	!LO:LB:g=original	!	!	!	!	!
1D	Vox	0r	.	2.A/	Vox	1D	Vox
.	.	.	.	4B/	.	.	.
1C	.	.	.	1c	.	1G	.
*Xlig	*	*	*	*	*	*Xlig	*
=14-	=14-	=14-	=14-	=14-	=14-	=14-	=14-
*	*	*lig	*	*	*	*lig	*
1D	.	1d	Vo-	1A	.	1F	.
1r	.	1g	.	2B/	.	1E	.
.	.	.	.	1c\	.	.	.
*	*	*Xlig	*	*	*	*Xlig	*
=15-	=15-	=15-	=15-	=15-	=15-	=15-	=15-
*lig	*	*lig	*	*	*	*lig	*
1D	.	1f	.	.	.	1F	.
.	.	.	.	2B/	.	.	.
1C	.	1e	.	1c	.	1G	.
*Xlig	*	*Xlig	*	*	*	*Xlig	*
=16-	=16-	=16-	=16-	=16-	=16-	=16-	=16-
*2\right	*	*	*	*	*	*	*
2.D\	.	2.f/	.	1A	.	1d	.
4E\	.	4g/	.	.	.	.	.
*2\left	*	*	*	*	*	*	*
2F\	.	2a/	.	2r	.	2c\	.
2G\	.	1g\	.	1.d\	.	2B/	.
=17-	=17-	=17-	=17-	=17-	=17-	=17-	=17-
1D	.	.	.	.	.	1A	ex-
*	*	*2\right	*	*	*	*	*
.	.	2f\	-x	.	.	.	.
1GG	.	1g	.	2.B/	.	1G	-ul-
.	.	.	.	4c/	.	.	.
=18-	=18-	=18-	=18-	=18-	=18-	=18-	=18-
0G	.	2r	.	4d\	.	2.B\	-ta-
.	.	.	.	4c/	.	.	.
.	.	2g/	ex-	4B/	.	.	.
.	.	.	.	4A/	.	4c\	-ti-
.	.	2.b\	-ul-	2G/	.	1d	-o-
.	.	.	.	2g\	ex-	.	.
.	.	4cc\	-ta-	.	.	.	.
=19-	=19-	=19-	=19-	=19-	=19-	=19-	=19-
*custos:G	*	*	*	*	*	*custos:d	*
1r	.	1dd	.	2f\	-ul-	1B	.
.	.	.	.	2.d\	-ta-	.	.
*2\right	*	*	*	*	*	*	*
!LO:PB:g=original	!	!	!	!	!	!LO:LB:g=original	!
2G\	ex-	2b\	.	.	.	0d	-nis
.	.	.	.	4e\	-ti-	.	.
*	*	*	*	*custos:f	*	*	*
4F/	-ul-	1dd\	.	2f\	-o-	.	.
4E/	-ta-	.	.	.	.	.	.
=20-	=20-	=20-	=20-	=20-	=20-	=20-	=20-
!	!	!	!	!LO:LB:g=original	!	!	!
2.D/	.	.	.	1f	-nis	.	.
.	.	4cc\	.	.	.	.	.
4E/	.	4b\	.	.	.	.	.
4F/	.	1a	.	2r	.	2r	.
4G\	.	.	.	.	.	.	.
*	*	*	*	*	*ij	*	*ij
4F/	.	.	.	2f\	Vox	1d\	vox
4D/	.	.	.	.	.	.	.
=21-	=21-	=21-	=21-	=21-	=21-	=21-	=21-
1G	.	1b	.	1g	.	.	.
.	.	.	.	.	.	4c/	ex-
.	.	.	.	.	.	4B/	-ul-
*	*	*2\left	*	*	*	*	*
2F\	.	2cc\	.	2r	.	2A/	-ta-
2G\	.	1b\	-ci-	2g\	ex-	2B/	-ti-
=22-	=22-	=22-	=22-	=22-	=22-	=22-	=22-
1A	-ci-	.	.	2e\	-ul-	1c	-o-
.	.	2a\	o-	2f\	-ta-	.	.
1.E	-o-	1b	-nis	2.g\	-ti-	1B	-nis
*	*	*	*	*	*	*	*Xij
.	.	.	.	4f\	-o-	.	.
=23-	=23-	=23-	=23-	=23-	=23-	=23-	=23-
.	.	1r	.	2e\	.	1G	et
*2\left	*	*	*	*	*	*	*
2F\	-nis	.	.	4d\	.	.	.
.	.	.	.	4c\	.	.	.
*	*	*	*	*	*	*lig	*
1G	.	1g	et	2.B/	.	1B	Sa-
.	.	.	.	4A/	.	.	.
=24-	=24-	=24-	=24-	=24-	=24-	=24-	=24-
*	*	*lig	*	*	*	*	*
2r	.	1b	Sa-	2G/	-nis	1d	.
*	*	*	*	*	*Xij	*	*
1.G	et	.	.	1g	et	.	.
*	*	*	*	*	*	*Xlig	*
.	.	1dd	.	.	.	1d	-lu-
.	.	.	.	4f\	.	.	.
.	.	.	.	4e\	.	.	.
*	*	*Xlig	*	*	*	*	*
=25-	=25-	=25-	=25-	=25-	=25-	=25-	=25-
1G	.	1dd	-lv-	1d	.	1B	-tis
2r	.	1b	.	2r	.	2.d\	.
1.G\	ſa-	.	.	2.g\	Sa-	.	.
.	.	.	.	.	.	4c\	.
=26-	=26-	=26-	=26-	=26-	=26-	=26-	=26-
*	*	*2\right	*	*	*	*	*
.	.	2dd\	.	.	.	1B	.
.	.	.	.	4f\	.	.	.
.	.	4cc\	.	2e\	-lv-	.	.
*	*	*custos:a	*	*	*	*	*
.	.	4b\	.	.	.	.	.
*2\right	*	*	*	*	*	*	*
!	!	!LO:PB:g=original	!	!	!	!	!
2F\	-lu-	1a	-tis	2f\	.	1c	.
2A\	-tis	.	.	2e\	.	.	.
=27-	=27-	=27-	=27-	=27-	=27-	=27-	=27-
2E\	.	2r	.	2g\	.	1B	.
*	*	*	*ij	*	*	*	*
2G\	.	2b/	et	2d\	.	.	.
1D	.	1a	Sa-	2.f\	.	2r	.
.	.	.	.	.	.	2.d\	Sa-
.	.	.	.	4e\	-tis	.	.
=28-	=28-	=28-	=28-	=28-	=28-	=28-	=28-
0G	.	1b	-lv-	1d	.	.	.
.	.	.	.	.	.	4c\	-lu-
.	.	.	.	.	.	4B/	.
.	.	.	.	.	.	4A/	.
*	*	*	*	*	*	*lig	*
.	.	1dd	.	2r	.	1B	-tis
.	.	.	.	2G/	et	.	.
=29-	=29-	=29-	=29-	=29-	=29-	=29-	=29-
1C	.	1ee	.	1g	ſa-	1c	.
*	*	*	*	*	*	*Xlig	*
*	*	*	*	*custos:f	*	*	*
0.G	in	1dd	.	2g\	-lv-	1B	.
!	!	!	!	!LO:LB:g=original	!	!	!
.	.	.	.	4f\	.	.	.
.	.	.	.	4e\	.	.	.
=30-	=30-	=30-	=30-	=30-	=30-	=30-	=30-
*	*	*2\left	*	*	*	*	*
.	.	2cc\	.	4d\	.	2r	.
.	.	.	.	4c\	.	.	.
.	.	2.dd\	.	4B\	.	2.B/	in
.	.	.	.	4A/	.	.	.
.	.	.	.	1G	-tis	.	.
.	.	4cc\	.	.	.	4c/	ta-
.	.	1b\	.	.	.	2d\	.
=31-	=31-	=31-	=31-	=31-	=31-	=31-	=31-
*custos:E	*	*	*	*	*	*	*
1A	ta-	.	.	2r	.	1c	-ber-
*	*	*2\right	*	*	*	*	*
.	.	2a\	.	2f\	in	.	.
!LO:LB:g=original	!	!	!	!	!	!	!
1.E	.	1b	-tis	1.g	ta-	1B	-na-
*	*	*	*Xij	*	*	*	*
=32-	=32-	=32-	=32-	=32-	=32-	=32-	=32-
.	.	1r	.	.	.	2.B\	.
*2\left	*	*	*	*	*	*	*
2.G\	-ber-	.	.	4f\	-ber	.	.
*	*	*	*	*	*	*custos:d	*
.	.	.	.	4e\	.	4c\	.
!	!	!	!	!	!	!LO:LB:g=original	!
.	.	1b	in	1d	.	2d\	.
4F\	.	.	.	.	.	.	.
4E\	.	.	.	.	.	2B\	.
4D\	.	.	.	.	.	.	.
=33-	=33-	=33-	=33-	=33-	=33-	=33-	=33-
0C	.	0e	ta-	1r	.	0c	-cu-
.	.	.	.	0G	in	.	.
=34-	=34-	=34-	=34-	=34-	=34-	=34-	=34-
00GG	-na-	0b	-ber-	.	.	0d	.
.	.	.	.	1G	ta-	.	.
=35-	=35-	=35-	=35-	=35-	=35-	=35-	=35-
.	.	0b	-na-	0G	-ber-	1.d	.
.	.	.	.	.	.	4c\	.
.	.	.	.	.	.	4B\	.
=36-	=36-	=36-	=36-	=36-	=36-	=36-	=36-
1.D	-cu-	0a	.	2F/	-na-	0A	.
.	.	.	.	1f	.	.	.
4C/	-liſ	.	.	4e\	.	.	.
4BB/	.	.	.	4d\	.	.	.
=37-	=37-	=37-	=37-	=37-	=37-	=37-	=37-
0AA	.	0cc	.	1e	.	1.A	-lis
.	.	.	.	0e	.	.	.
.	.	.	.	.	.	2B/	.
=38-	=38-	=38-	=38-	=38-	=38-	=38-	=38-
*	*	*lig	*	*	*	*	*
1r	.	0a	-cu-	.	.	1c	.
*	*	*	*	*lig	*	*	*
1D	in-	.	.	1f	.	1d	.
=39-	=39-	=39-	=39-	=39-	=39-	=39-	=39-
*lig	*	*	*	*	*	*	*
1E	-ſto-	0g	.	1e	.	1B	.
*	*	*	*	*Xlig	*	*	*
1C	.	.	.	2e\	-cu-	1c	.
.	.	.	.	4d\	.	.	.
.	.	.	.	4c\	-lis	.	.
*	*	*Xlig	*	*	*	*	*
=40-	=40-	=40-	=40-	=40-	=40-	=40-	=40-
0G	.	0b	-lis	1.d	.	0B	In-
.	.	.	.	2e\	.	.	.
*Xlig	*	*	*	*	*	*	*
=41-	=41-	=41-	=41-	=41-	=41-	=41-	=41-
*2\right	*	*	*	*	*	*lig	*
2F\	.	1r	.	2c/	.	1A	-ſto-
2D/	.	.	.	2d\	.	.	.
2.C/	.	1e	in-	0G	.	1c	.
4D/	.	.	.	.	.	.	.
*	*	*	*	*	*	*Xlig	*
=42-	=42-	=42-	=42-	=42-	=42-	=42-	=42-
1E	.	1g	-ſto-	.	.	1B	.
*	*	*lig	*	*2\right	*	*	*
2F\	.	1a	.	2.c\	in-	1A	-rum
4E/	.	.	.	.	.	.	.
*	*	*	*	*custos:e	*	*	*
!	!	!	!	!LO:TX:t=P:problem=4\right	!	!	!
4D/	.	.	.	4d\	-ſto-	.	.
=43-	=43-	=43-	=43-	=43-	=43-	=43-	=43-
!	!	!	!	!LO:LB:g=original	!	!	!
1C	.	1cc	.	1e	.	2r	.
.	.	.	.	.	.	2.G/	In-
*	*	*Xlig	*	*	*	*	*
1G	.	1b	.	1d	.	.	.
.	.	.	.	.	.	4A/	-ſto-
.	.	.	.	.	.	2B/	.
=44-	=44-	=44-	=44-	=44-	=44-	=44-	=44-
2A\	.	1a	.	0c	.	2c/	.
1F	.	.	.	.	.	1A	.
*	*	*lig	*	*	*	*	*
.	.	1cc	.	.	.	.	.
4E/	.	.	.	.	.	4G/	.
4D/	.	.	.	.	.	4F/	.
=45-	=45-	=45-	=45-	=45-	=45-	=45-	=45-
1C	.	1g	.	1c	-rum	1E	.
*2\left	*	*Xlig	*	*	*	*	*
*custos:D	*	*custos:b	*	*	*	*	*
2F\	.	1a	.	1A	.	2D/	.
!LO:LB:g=original	!	!	!	!	!	!	!
2D/	.	.	.	.	.	1d\	.
=46-	=46-	=46-	=46-	=46-	=46-	=46-	=46-
!	!	!LO:LB:g=original	!	!	!	!	!
1G	-rum	1b	.	2G/	In-	.	.
.	.	.	.	4g\	-ſto-	4c\	.
.	.	.	.	4f\	.	4B\	.
2r	.	2.cc\	.	4e\	.	2.A/	.
.	.	.	.	4d\	.	.	.
1F\	In-	.	.	2.c\	.	.	.
.	.	4b\	.	.	.	4B/	.
=47-	=47-	=47-	=47-	=47-	=47-	=47-	=47-
.	.	2.a/	.	.	.	1c	.
.	.	.	.	4d\	.	.	.
*2\right	*	*	*	*	*	*	*
2E\	-ſto-	.	.	2e\	.	.	.
.	.	4g/	.	.	.	.	.
2F\	.	4f/	.	1.d	.	2r	.
.	.	4e/	.	.	.	.	.
1G\	.	1d/	.	.	.	1B\	.
=48-	=48-	=48-	=48-	=48-	=48-	=48-	=48-
.	.	.	.	.	.	.	.
*	*	*	*	*2\left	*	*	*
2C/	-rum.	1g	.	2d\	.	2c/	.
1D	.	.	.	1d	.	1A	.
.	.	2f/	.	.	.	.	.
=49-	=49-	=49-	=49-	=49-	=49-	=49-	=49-
0GGl/	.	0gl\	-rum	0dl\	-rum	0Gl\	-rum
=-	=-	=-	=-	=-	=-	=-	=-
*-	*-	*-	*-	*-	*-	*-	*-
!!!system-decoration: [(s1,s2,s3,s4)]
!!!RDF**kern: l = terminal long
!!!AIN: 1 alto 1 bass 1 soprn 1 tenor
!!!ENC: Filip Voros
!!!END: 2022-01-15
!!!ENC: Marta Chmielewska
!!!END: 2022-01-24
